X:680
T: WUNDERSCHOEN PRAECHTIGE HOEHE UND MAECHTIGE
N: E2082
O: Europa, Mitteleuropa, Deutschland
R: geistlich, Marien - Lied
M: 3/4
L: 1/8
K: F
 | F2F2F2 | F3GF2 | A2A2A2 | A3BA2 |
c2f2c2 | c3BA2 | GAB2A2 | G4z2 |
F2F2F2 | F3GF2 | A2A2A2 | A3BA2 |
c2f2c2 | c3BA2 | GAB2A2 | G4z2 |
c2A2c2 | c2BAB2 | B2G2B2 | B2AGA2 |
F2C2F2 | A2F2A2 | c2A2c2 | f4z2 |
f2e2d2 | c3BA2 | cBA2G2 | F6

@@@ Tune index: 5364
